shared/images/iconfont/kb-iconfont-proof-broken-24.svg

<?xml version="1.0" encoding="UTF-8"?>
<svg width="24px" height="24px" viewBox="0 0 24 24" version="1.1" xmlns="http://www.w3.org/2000/svg" xmlns:xlink="http://www.w3.org/1999/xlink">
    <!-- Generator: sketchtool 41.2 (35397) - http://www.bohemiancoding.com/sketch -->
    <title>56DE9AF4-5D13-4418-925A-8679E867D625</title>
    <desc>Created with sketchtool.</desc>
    <defs></defs>
    <g id="Icons" stroke="none" stroke-width="1" fill="none" fill-rule="evenodd">
        <g id="Style-guide---Desktop---Icons-2" transform="translate(-90.000000, -1102.000000)">
            <g id="kb-iconfont-proof-broken-24" transform="translate(90.000000, 1102.000000)">
                <rect id="icon-area" fill="#D8D8D8" opacity="0" x="0" y="0" width="24" height="24"></rect>
                <path d="M13.0707321,3.41905267 L11.8457473,2.2883141 C11.3514939,1.83220901 10.5617931,1.92970892 10.1907487,2.49273066 L8.90775697,4.43884562 C8.69558384,4.76111703 8.3285084,4.94799081 7.94261254,4.93045482 L5.59551231,4.82419863 C4.91983755,4.793314 4.37690477,5.37582222 4.45850486,6.04310988 L4.73878247,8.33470679 C4.78575424,8.71820655 4.62394714,9.0983522 4.31416947,9.33267478 L2.43265819,10.7562667 C1.8915716,11.1655806 1.85145748,11.9608528 2.34926,12.4174885 L4.04830796,13.9762708 C4.33545119,14.2398426 4.45786682,14.6371791 4.36917409,15.0170589 L3.83456612,17.3038627 C3.68031837,17.9647189 4.16519325,18.6006068 4.84590698,18.6295557 L7.16401317,18.7277298 C7.55790746,18.744522 7.9111565,18.9716452 8.08786022,19.3216409 L9.14021705,21.4052298 C9.44644207,22.0114095 10.2320713,22.18909 10.7755477,21.7755045 L12.6320401,20.3624551 C12.9469185,20.1229439 13.3664574,20.0709199 13.7287537,20.2268777 L15.8671521,21.1463141 C16.4933786,21.4154413 17.2133959,21.0514392 17.3665259,20.3886525 L17.8919359,18.1100397 C17.9802041,17.7271868 18.2692182,17.4211652 18.6472896,17.308718 L20.8734915,16.6490143 C21.5272707,16.4550594 21.846945,15.7198799 21.539613,15.1162679 L20.4765979,13.0265889 C20.2999358,12.6794649 20.3243681,12.2641881 20.5407419,11.9385332 L21.8183549,10.0122453 C22.1931863,9.44736513 21.9653381,8.6853848 21.3423196,8.41955861 L19.177442,7.49638366 C18.8211372,7.34405483 18.5736284,7.01455209 18.5279087,6.63097502 L18.2543775,4.3387116 C18.178394,3.70230215 17.5707641,3.27939657 16.9530446,3.40872743 L12.6371463,9.23237899 L16.3894676,8.81565728 C16.439145,8.81879086 16.4738281,8.80933888 16.5071935,8.81144353 C16.6236016,8.81878641 16.7196848,8.86029557 16.8109535,8.93747847 C16.9186994,9.02734049 16.92423,9.12292372 16.8454002,9.22482536 L10.9513949,16.5241672 C10.872565,16.6260689 10.7323352,16.6770094 10.5491962,16.6654572 C10.5328843,16.6644283 10.4845845,16.6492127 10.4178537,16.6450034 C10.3204529,16.6150509 10.2427409,16.5630608 10.1998318,16.5005681 C10.1561213,16.438554 10.1478954,16.3666093 10.1722334,16.2972479 L12.6092109,11.0950942 L8.77121145,11.529691 L8.65480329,11.5223481 C8.53839514,11.5150052 8.45804771,11.4861284 8.3803956,11.433613 C8.27069583,11.3674363 8.24805185,11.2713027 8.29219857,11.178853 L13.0707321,3.41905267 L13.0707321,3.41905267 Z" id="Fill-1" fill="#000000"></path>
            </g>
        </g>
    </g>
</svg>

<svg xmlns="http://www.w3.org/2000/svg" width="24" height="24" viewBox="0 0 24 24">
    <path fill="#000" fill-rule="evenodd" d="M13.07 3.42l-1.224-1.132a1.095 1.095 0 0 0-1.655.205L8.908 4.439c-.212.322-.58.509-.965.491l-2.347-.106a1.092 1.092 0 0 0-1.137 1.22l.28 2.29c.047.384-.115.764-.425.999l-1.881 1.423a1.082 1.082 0 0 0-.084 1.661l1.7 1.56c.286.263.409.66.32 1.04l-.534 2.287c-.155.66.33 1.297 1.01 1.326l2.319.098c.394.017.747.244.924.594l1.052 2.083a1.091 1.091 0 0 0 1.636.37l1.856-1.413c.315-.24.734-.291 1.097-.135l2.138.92a1.096 1.096 0 0 0 1.5-.758l.525-2.279c.088-.383.377-.689.755-.801l2.226-.66c.654-.194.974-.93.667-1.533l-1.063-2.09a1.08 1.08 0 0 1 .064-1.087l1.277-1.927a1.08 1.08 0 0 0-.476-1.592l-2.165-.924a1.08 1.08 0 0 1-.65-.865l-.273-2.292a1.085 1.085 0 0 0-1.301-.93l-4.316 5.823 3.752-.416c.05.003.085-.007.118-.005a.5.5 0 0 1 .304.126c.108.09.113.186.034.288l-5.894 7.3c-.078.101-.219.152-.402.14-.016 0-.064-.016-.131-.02a.407.407 0 0 1-.218-.144.218.218 0 0 1-.028-.204l2.437-5.202-3.838.435-.116-.008a.514.514 0 0 1-.275-.088c-.11-.067-.132-.163-.088-.255l4.779-7.76z"/>
</svg>
